X:135
T:B135-  Fain I would if I could
S:(2nd/2)
Q:1/4=120
L:1/4
M:6/4
K:Ddorian
d3f3|e3/2f/2d^c2d|d3/2e/2d^c2B|(A3A2)c|
c3/2d/2cBA|G3A3|F2FG3/2A/2G|(F3F2)||F|E2D\
M:C|
L:1/4
E/2D/2E/2F/2|\
M:6/4
L:1/4
(G3G2)E|\
M:C|
L:1/4
F/2E/2F/2G/2 A/2G/2A/2B/2|\
M:6/4
L:1/4
(c3c2)E||F2GA2F|c3f3|e2Ad3/2e/2^c|(d3d3)|]
